X: 11432
T: The STREAMLET THAT FLOWED ROUND HER COT
T: From "The Woodman."
C: Shield.
Q: "Slow."
%R: air, strathspey
B: W. Hamilton "Universal Tune-Book" Vol. 1 Glasgow 1844 p.143 #2
S: http://imslp.org/wiki/Hamilton's_Universal_Tune-Book_(Various)
Z: 2016 John Chambers <jc:trillian.mit.edu>
M: C
L: 1/8
K: D
%%slurgraces yes
%%graceslurs yes
% - - - - - - - - - - - - - - - - - - - - - - - - -
(DF) |\
(A>B)AF (GB)dB | A2(d>e) f2D>E |\
(FA)dc (Bf)e^G | A4 z2 |: (e>f) |\
(gf)ed {d}c2BA | d2f>g Ha2F>G |\
[1 (Ad)Bf (ge)dc | d4 z2 :|\
[2 (Ad)Bb (ge)dc | d4 z2 |]
% - - - - - - - - - - - - - - - - - - - - - - - - -

%%sep 1 1 500
%%sep 1 1 500

